packages/katcn/src/icons/svg/open-solid.svg

<svg width="24" height="25" viewBox="0 0 24 25" fill="none" xmlns="http://www.w3.org/2000/svg">
<path d="M21.3604 13.2881H19.6726H6.76565C5.97137 13.2881 5.1771 13.5738 4.58139 14.05C4.18426 14.3357 3.8864 14.8119 3.68783 15.2881L2.79427 17.3833L2.09928 19.0976C2 19.2881 2 19.4786 2 19.669C2 19.9548 2.09928 20.2405 2.19857 20.4309C2.49642 20.9071 2.99284 21.2881 3.68783 21.2881H18.1833C19.5733 21.2881 20.7647 20.5262 21.2612 19.2881L22.8497 15.4786C23.3461 14.4309 22.5519 13.2881 21.3604 13.2881Z" fill="black"/>
<path d="M1.98522 14.6955C2.18227 14.2807 2.37931 13.8659 2.67488 13.451C2.87192 13.1399 3.06897 12.9325 3.36453 12.6214C4.25123 11.7918 5.4335 11.2733 6.71429 11.2733H19.4236H20.2118H21V9.4066C21 7.43623 19.5222 5.88068 17.6502 5.88068H12.133L10.8522 4.53253C10.1626 3.7029 9.07882 3.28809 7.99507 3.28809H4.34975C2.47783 3.28809 1 4.84364 1 6.81401V17.2881L1.78818 15.1103L1.98522 14.6955Z" fill="black"/>
</svg>

<svg xmlns="http://www.w3.org/2000/svg" fill="none" viewBox="0 0 24 25"><path fill="#000" d="M21.36 13.288H6.766a3.56 3.56 0 0 0-2.185.762c-.397.286-.695.762-.893 1.238l-.894 2.095-.695 1.715c-.099.19-.099.38-.099.571 0 .286.1.572.199.762.297.476.794.857 1.489.857h14.495c1.39 0 2.582-.762 3.078-2l1.589-3.81c.496-1.047-.298-2.19-1.49-2.19"/><path fill="#000" d="M1.985 14.696c.197-.415.394-.83.69-1.245.197-.311.394-.519.69-.83a4.9 4.9 0 0 1 3.35-1.348H21V9.407c0-1.97-1.478-3.526-3.35-3.526h-5.517l-1.28-1.348c-.69-.83-1.774-1.245-2.858-1.245H4.35C2.478 3.288 1 4.844 1 6.814v10.474l.788-2.178z"/></svg>
